X:489
T:The Kildare fancy
T:The Union hornpipe
T:The Dundee hornpipe
R:Hornpipe
O:Ireland
B:O'Neill's 1559
B:Kerr's Second p39
B:Kerr's Third p36
S:O'Neill's 1559
Z:Transcription, chords:Mike Long
M:4/4
L:1/8
K:D
dB|\
"D"AFDF AFdB|(3(ABA) FA fedc|"G"BABf gefd|"A"edcB A2dB|\
"D"AFDF AFdB|
(3(ABA) FA fedc|"G"BABf gefd|"A"ec (3(ABc) "D"d2:|\
|:de|\
"D"fdcd BdAF|Ddcd fdcd|
"A"eA ~A2 fA ~A2|(3(efe) (3(dcB) A2de|\
"D"fdcd "(G)"BdAF|"D"Ddcd fdcd|"A"eAfA "(G)"gAfA|"A"ec (3(ABc) "D"d2:|
